X:1
T:the Marchioness of Normanby
T:the Marchioness of Normanby
T:William Marshall
C:William Marshall
%%score { 1 ( 2 3 ) }
L:1/8
M:6/8
K:Bb
V:1 treble 
V:2 bass 
V:3 bass 
V:1
 f |: (df)!wedge!d B3 | (df)!wedge!d B3 | GAB cde | dcB AGF | (df)!wedge!d B3 | (df)!wedge!d B3 | %7
 efg gab | ag=e f3 :| F2 F FGA | Bcd e2 c | B2 B Bcd | ede g2 f | E2 g g2 b | D2 f f2 b | dcB FGA | %16
 [DB]3 [DB]2 d | F2 F FGA | Bcd e2 c | B2 B Bcd | ede g2 f | b2 B fga | b2 B g2 f | d2 B FGA | %24
 [DB]3 [DB]3 |] %25
V:2
 z |: B,,F,B, B,,F,B, | B,,F,B, B,,F,B, | E,,2 [D,,D,] [C,,C,]2 [A,,A,] | %4
 [B,,B,]2 [D,,D,] [F,,F,]3 | B,,F,B, B,,F,B, | B,,F,B, B,,F,B, | E,G,B, E,G,B, | C,G,B, [F,A,]3 :| %9
 F,3 F,2 E | DCB, A,2 E | D2 D DCB, | [G,B,]2 [G,B,] [E,B,]2 [D,B,] | E,G,B, E,G,B, | %14
 B,,F,B, B,,F,B, | F,B,D F,CE | B,,F,B, B,,2 z | F,3 F,2 E | DCB, A,2 E | D2 D DCB, | %20
 [G,B,]2 [G,B,] [E,B,]2 [D,B,] | B,,F,B, B,,F,B, | B,,F,B, D,F,B, | F,B,D F,CE | B,,D,F, B,3 |] %25
V:3
 x |: x6 | x6 | x6 | x6 | x6 | x6 | x6 | x6 :| x6 | F,3 F,3 | F,3 F,3 | x6 | x6 | x6 | x6 | x6 | %17
 x6 | F,3 F,2 x | F,3 F,3 | x6 | x6 | x6 | x6 | x6 |] %25

